X: 4
T: Simkhes-Toyre [Bm]
C: Mark Warshawsky
Z: 2008 John Chambers <jc:trillian.mit.edu>
S: handwritten MS of unknown origin
M: C|
L: 1/8
K: Bm
[|"Bm"B2 d2 e2 d2 | "Em"e2 d2 e2 d2 | "Bm"B2 d2 "Em"e2 d2 | "F#7"B2 c2 "Bm"d2 z2 \
| "Bm"B2 d2 e2 d2 | "Em"e2 d2 e2 d2 | "B"B2 d2 "F#7"f2 e2 | d2 c2 "Bm"B2 z2 |]
[| "Bm"f4 f4 | f2 f2 f4 | "Bm"f2 e2 "F#7"d2 e2 | "Bm"f2 f2 f4 \
|  "Bm"f2 e2 "(F)"d2 e2 | "F#7"d2 c2 "Bm"B4 | "F#7"[f2c2] e2 d2 c2 | "Bm"B4 z4 |]
